X:523
T:Where did you find her?
R:Hornpipe
O:Ireland
S:O'Neill's
B:O'Neill's 1758
Z:Transcription, rearrangement, chords:Mike Long
M:4/4
L:1/8
K:D
{g}fe|\
"D"dAFA DAFA|dAFA DAFA|"G"(3(Bcd) ef gefd|"A"edcB Agfe|\
"D"dAFA DAFA|
dAFA D2FA|"G"Bged "A"cABc|"D"d2"A"f2 "D"d2:|\
|:(fg)|\
"D"afdf .Ad (3(dcd)|.Fd (3(dcd) .Ad (3(dcd)|"G"(3(Bcd) ef gefd|
"A"cdef e2(b^g)|\
"D"afdf .Ad (3(dcd)|.Fd (3(dcd) .Ad (3(dcd)|"G"Bged "A"cABc|"D"d2"A"f2 "D"d2:|
